img/jest.svg

<svg viewBox="0 0 1024 768" xmlns="http://www.w3.org/2000/svg"><path stroke="#FFF" stroke-width="20" d="M465.391 381.102c-.54.328-18.349-2.66-40.665-4.171-18.225-1.235-39.456-1.188-56.744-.017-14.019.949-32.438-6.098-34.639 2.277-8.238 31.351-25.963 58.655-48.511 79.928-16.963 16.003-36.377 28.138-57.375 35.615-24.999-12.842-36.805-41.404-26.152-66.447 8.449-19.863 18.28-41.74.13-46.745-13.213-3.644-20.468 9.013-25.547 22.545-9.73 25.923-28.219 52.748-33.488 84.521-5.562 33.542-.018 69.147 28.992 89.253 67.562 46.826 140.9-29.028 218.225-48.096 28.024-6.911 58.785-5.797 83.475-20.097 18.541-10.739 30.764-28.535 34.233-48.516 5.58-32.137-11.139-64.066-41.934-80.05z" fill="#99425b"/><path fill="none" stroke="#FFF" stroke-width="20" d="M333.343 379.191c-8.238 31.351-25.963 58.655-48.511 79.928-16.963 16.003-36.377 28.138-57.376 35.615-24.999-12.842-36.805-41.404-26.152-66.447 8.449-19.863 18.28-41.74.13-46.745-13.213-3.644-20.468 9.013-25.547 22.545-9.73 25.923-28.219 52.748-33.488 84.521-5.562 33.542-.018 69.147 28.992 89.253 67.562 46.826 140.9-29.028 218.226-48.096 28.024-6.911 58.785-5.797 83.475-20.097 18.541-10.739 30.764-28.535 34.233-48.515 5.58-32.137-11.139-64.066-41.934-80.05"/><path fill="#99425b" d="M395.364 254.17l54.321 110.812L514.778 173H275.789l64.943 191.641z"/><path fill="none" stroke="#FFF" stroke-width="20" d="M395.364 254.17l54.321 110.812L514.777 173H275.789l64.943 191.641z"/><circle cx="329.46" cy="379.583" r="40.945" fill="#99425b"/><circle fill="none" stroke="#FFF" stroke-width="20" cx="329.46" cy="379.583" r="40.945"/><circle stroke="#FFF" stroke-width="20" cx="462.844" cy="379.583" r="40.945" fill="#99425b"/><circle fill="none" stroke="#FFF" cx="462.844" cy="379.583" r="40.945" stroke-width="20"/><circle cx="195.571" cy="379.877" r="40.945" fill="#99425b"/><circle fill="none" stroke="#FFF" stroke-width="20" cx="195.571" cy="379.877" r="40.945"/></svg>

<?xml version="1.0" encoding="utf-8"?>
<svg id="Layer_1" x="0px" y="0px" viewBox="0 0 1024 768" xmlns="http://www.w3.org/2000/svg">
  <path stroke="#FFFFFF" stroke-width="20" d="M 465.391 381.102 C 464.851 381.43 447.042 378.442 424.726 376.931 C 406.501 375.696 385.27 375.743 367.982 376.914 C 353.963 377.863 335.544 370.816 333.343 379.191 C 325.105 410.542 307.38 437.846 284.832 459.119 C 267.869 475.122 248.455 487.257 227.457 494.734 C 202.458 481.892 190.652 453.33 201.305 428.287 C 209.754 408.424 219.585 386.547 201.435 381.542 C 188.222 377.898 180.967 390.555 175.888 404.087 C 166.158 430.01 147.669 456.835 142.4 488.608 C 136.838 522.15 142.382 557.755 171.392 577.861 C 238.954 624.687 312.292 548.833 389.617 529.765 C 417.641 522.854 448.402 523.968 473.092 509.668 C 491.633 498.929 503.856 481.133 507.325 461.152 C 512.905 429.015 496.186 397.086 465.391 381.102 Z" style="fill: rgb(153, 66, 91);"/>
  <path fill="none" stroke="#FFFFFF" stroke-width="20" d="M333.343,379.191c-8.238,31.351-25.963,58.655-48.511,79.928&#10;&#9;c-16.963,16.003-36.377,28.138-57.376,35.615c-24.999-12.842-36.805-41.404-26.152-66.447c8.449-19.863,18.28-41.74,0.13-46.745&#10;&#9;c-13.213-3.644-20.468,9.013-25.547,22.545c-9.73,25.923-28.219,52.748-33.488,84.521c-5.562,33.542-0.018,69.147,28.992,89.253&#10;&#9;c67.562,46.826,140.9-29.028,218.226-48.096c28.024-6.911,58.785-5.797,83.475-20.097c18.541-10.739,30.764-28.535,34.233-48.515&#10;&#9;c5.58-32.137-11.139-64.066-41.934-80.05"/>
  <polygon points="395.364,254.17 449.685,364.982 514.778,173 275.789,173 340.732,364.641 " style="fill: rgb(153, 66, 91);"/>
  <polygon fill="none" stroke="#FFFFFF" stroke-width="20" points="395.364,254.17 449.685,364.982 514.777,173 275.789,173 &#10;&#9;340.732,364.641 "/>
  <circle cx="329.46" cy="379.583" r="40.945" style="fill: rgb(153, 66, 91);"/>
  <circle fill="none" stroke="#FFFFFF" stroke-width="20" cx="329.46" cy="379.583" r="40.945"/>
  <circle stroke="#FFFFFF" stroke-width="20" cx="462.844" cy="379.583" r="40.945" style="fill: rgb(153, 66, 91);"/>
  <circle fill="none" stroke="#FFFFFF" cx="462.844" cy="379.583" r="40.945" stroke-width="20"/>
  <circle cx="195.571" cy="379.877" r="40.945" style="fill: rgb(153, 66, 91);"/>
  <circle fill="none" stroke="#FFFFFF" stroke-width="20" cx="195.571" cy="379.877" r="40.945"/>
</svg>
